svgs/sharp-light/phone-office.svg

<svg xmlns="http://www.w3.org/2000/svg" viewBox="0 0 576 512"><!--! Font Awesome Pro 6.6.0 by @fontawesome - https://fontawesome.com License - https://fontawesome.com/license (Commercial License) Copyright 2024 Fonticons, Inc. --><path d="M208 32l0 368-96 0 0-368 96 0zM112 0L80 0l0 32L32 32 0 32 0 64 0 480l0 32 32 0 512 0 32 0 0-32 0-416 0-32-32 0-32 0-32 0L320 32l-32 0-48 0 0-32L208 0 112 0zM288 64l0 64 0 32 32 0 160 0 32 0 0-32 0-64 32 0 0 416L32 480 32 64l48 0 0 336 0 32 32 0 96 0 32 0 0-32 0-336 48 0zm192 0l0 64-160 0 0-64 160 0zM352 224l0 32-32 0 0-32 32 0zm-32-32l-32 0 0 32 0 32 0 32 32 0 32 0 32 0 0-32 0-32 0-32-32 0-32 0zm0 160l32 0 0 32-32 0 0-32zm-32-32l0 32 0 32 0 32 32 0 32 0 32 0 0-32 0-32 0-32-32 0-32 0-32 0zm192-96l0 32-32 0 0-32 32 0zm-32-32l-32 0 0 32 0 32 0 32 32 0 32 0 32 0 0-32 0-32 0-32-32 0-32 0zm0 160l32 0 0 32-32 0 0-32zm-32-32l0 32 0 32 0 32 32 0 32 0 32 0 0-32 0-32 0-32-32 0-32 0-32 0z"/></svg>

<svg xmlns="http://www.w3.org/2000/svg" viewBox="0 0 576 512"><!--! Font Awesome Pro 6.4.2 by @fontawesome - https://fontawesome.com License - https://fontawesome.com/license (Commercial License) Copyright 2023 Fonticons, Inc. --><path d="M208 32V400H112V32h96zM112 0H80V32H32 0V64 480v32H32 544h32V480 64 32H544 512 480 320 288 240V0H208 112zM288 64v64 32h32H480h32V128 64h32V480H32V64H80V400v32h32 96 32V400 64h48zm192 0v64H320V64H480zM352 224v32H320V224h32zm-32-32H288v32 32 32h32 32 32V256 224 192H352 320zm0 160h32v32H320V352zm-32-32v32 32 32h32 32 32V384 352 320H352 320 288zm192-96v32H448V224h32zm-32-32H416v32 32 32h32 32 32V256 224 192H480 448zm0 160h32v32H448V352zm-32-32v32 32 32h32 32 32V384 352 320H480 448 416z"/></svg>
